public/icons/picto-tip.svg

<?xml version="1.0" encoding="UTF-8"?>
<svg width="18px" height="18px" viewBox="0 0 18 18" version="1.1" xmlns="http://www.w3.org/2000/svg" xmlns:xlink="http://www.w3.org/1999/xlink">
    <!-- Generator: sketchtool 52.4 (67378) - http://www.bohemiancoding.com/sketch -->
    <title>F0C9DF2C-C7DA-4960-AD5B-8E24A55B1BA5</title>
    <desc>Created with sketchtool.</desc>
    <g id="Portail-pro" stroke="none" stroke-width="1" fill="none" fill-rule="evenodd">
        <g id="Passculture-Pro-creer-lieu0" transform="translate(-750.000000, -331.000000)" fill="#0066FF" fill-rule="nonzero">
            <g id="Group-3" transform="translate(268.000000, 54.000000)">
                <g id="Stacked-Group" transform="translate(84.000000, 66.000000)">
                    <g transform="translate(0.000000, 170.000000)" id="FORMS/text-field---top-label">
                        <g>
                            <g id="Stacked-Group-[6h]" transform="translate(0.000000, 32.000000)">
                                <g id="PICTOS/picto-info-S" transform="translate(398.000000, 9.000000)">
                                    <path d="M9,18 C4.02943725,18 0,13.9705627 0,9 C0,4.02943725 4.02943725,0 9,0 C13.9705627,0 18,4.02943725 18,9 C18,13.9705627 13.9705627,18 9,18 Z M9,17 C13.418278,17 17,13.418278 17,9 C17,4.581722 13.418278,1 9,1 C4.581722,1 1,4.581722 1,9 C1,13.418278 4.581722,17 9,17 Z M9.00000191,13 L9.00000191,8.5 L8,8.5 C7.72385763,8.5 7.5,8.27614237 7.5,8 C7.5,7.72385763 7.72385763,7.5 8,7.5 L9.50000191,7.5 C9.77614428,7.5 10.0000019,7.72385763 10.0000019,8 L10.0000019,13 C10.0000019,13.2761424 9.77614428,13.5 9.50000191,13.5 C9.22385953,13.5 9.00000191,13.2761424 9.00000191,13 Z M8.99999809,5.58113883 L8.99999809,4.58113883 C8.99999809,4.30499646 9.22385572,4.08113883 9.49999809,4.08113883 C9.77614047,4.08113883 9.99999809,4.30499646 9.99999809,4.58113883 L9.99999809,5.58113883 C9.99999809,5.8572812 9.77614047,6.08113883 9.49999809,6.08113883 C9.22385572,6.08113883 8.99999809,5.8572812 8.99999809,5.58113883 Z" id="Combined-Shape"></path>
                                </g>
                            </g>
                        </g>
                    </g>
                </g>
            </g>
        </g>
    </g>
</svg>

<svg width="18" height="18" viewBox="0 0 18 18" xmlns="http://www.w3.org/2000/svg"><path d="M9 18A9 9 0 119 0a9 9 0 010 18zm0-1A8 8 0 109 1a8 8 0 000 16zm0-4V8.5H8a.5.5 0 010-1h1.5a.5.5 0 01.5.5v5a.5.5 0 11-1 0zm0-7.419v-1a.5.5 0 011 0v1a.5.5 0 11-1 0z" fill="#06F"/></svg>
